aemilian/images/svg/picture-c.svg

<svg version="1.1" id="Layer_1" xmlns="http://www.w3.org/2000/svg" xmlns:xlink="http://www.w3.org/1999/xlink" x="0px" y="0px"
	 width="100%" viewBox="0 0 900 600" enable-background="new 0 0 900 600" xml:space="preserve">
<path fill="#B92EA7" opacity="1.000000" stroke="none" 
	d="
M648.000000,601.000000 
	C432.000000,601.000000 216.500000,601.000000 1.000000,601.000000 
	C1.000000,401.000000 1.000000,201.000000 1.000000,1.000000 
	C301.000000,1.000000 601.000000,1.000000 901.000000,1.000000 
	C901.000000,201.000000 901.000000,401.000000 901.000000,601.000000 
	C816.833313,601.000000 732.666687,601.000000 648.000000,601.000000 
M651.467590,490.932434 
	C654.133667,490.928314 656.802856,491.007355 659.465210,490.905029 
	C668.904602,490.542297 674.954712,484.774628 675.785095,475.373779 
	C675.916687,473.884003 675.882019,472.377289 675.882080,470.878418 
	C675.886047,356.569641 675.886597,242.260864 675.878174,127.952095 
	C675.878052,126.121902 675.896179,124.276367 675.683411,122.464119 
	C674.604675,113.277634 668.502930,107.845306 659.180298,107.844460 
	C520.376770,107.831924 381.573273,107.831612 242.769760,107.845108 
	C233.305679,107.846031 227.110428,113.562721 226.222000,122.995987 
	C226.081818,124.484520 226.118423,125.992233 226.118378,127.491074 
	C226.114166,241.966476 226.111740,356.441895 226.133682,470.917297 
	C226.134125,473.239441 226.247238,475.589325 226.610321,477.878296 
	C227.629730,484.304810 231.519272,488.392517 237.675812,490.035614 
	C240.516190,490.793732 243.594193,490.897552 246.564590,490.898407 
	C381.202301,490.937622 515.840027,490.932434 651.467590,490.932434 
z"/>
<path fill="#010001" opacity="1.000000" stroke="none" 
	d="
M650.972656,490.932434 
	C515.840027,490.932434 381.202301,490.937622 246.564590,490.898407 
	C243.594193,490.897552 240.516190,490.793732 237.675812,490.035614 
	C231.519272,488.392517 227.629730,484.304810 226.610321,477.878296 
	C226.247238,475.589325 226.134125,473.239441 226.133682,470.917297 
	C226.111740,356.441895 226.114166,241.966476 226.118378,127.491074 
	C226.118423,125.992233 226.081818,124.484520 226.222000,122.995987 
	C227.110428,113.562721 233.305679,107.846031 242.769760,107.845108 
	C381.573273,107.831612 520.376770,107.831924 659.180298,107.844460 
	C668.502930,107.845306 674.604675,113.277634 675.683411,122.464119 
	C675.896179,124.276367 675.878052,126.121902 675.878174,127.952095 
	C675.886597,242.260864 675.886047,356.569641 675.882080,470.878418 
	C675.882019,472.377289 675.916687,473.884003 675.785095,475.373779 
	C674.954712,484.774628 668.904602,490.542297 659.465210,490.905029 
	C656.802856,491.007355 654.133667,490.928314 650.972656,490.932434 
M270.811340,414.310669 
	C266.695953,418.083557 262.580536,421.856445 258.465149,425.629364 
	C258.784393,426.046295 259.103607,426.463257 259.422821,426.880188 
	C389.022156,426.880188 518.621521,426.880188 648.925232,426.880188 
	C647.474243,425.006348 646.526550,423.693878 645.489685,422.456238 
	C606.968689,376.479462 568.433167,330.514954 529.916016,284.535034 
	C520.573730,273.382721 509.909760,273.383759 500.643097,284.483124 
	C475.870514,314.155151 451.072052,343.805695 426.241394,373.429169 
	C417.420532,383.952606 407.930481,384.274078 398.154175,374.528595 
	C388.358002,364.763367 378.576294,354.983551 368.770630,345.227875 
	C358.513031,335.022644 350.598724,334.981354 340.445984,345.072144 
	C317.396790,367.980652 294.355560,390.897186 270.811340,414.310669 
M404.324371,269.824036 
	C424.645660,249.097061 423.853210,218.377548 402.504517,199.276871 
	C387.790314,186.112076 365.796997,183.550903 347.946228,192.923462 
	C330.843719,201.903168 319.900635,222.090744 322.479187,240.208862 
	C325.218628,259.457642 335.316803,273.415253 353.647797,280.190857 
	C372.070435,287.000336 389.016968,283.427124 404.324371,269.824036 
z"/>
<path fill="#B82EA6" opacity="1.000000" stroke="none" 
	d="
M271.061218,414.060547 
	C294.355560,390.897186 317.396790,367.980652 340.445984,345.072144 
	C350.598724,334.981354 358.513031,335.022644 368.770630,345.227875 
	C378.576294,354.983551 388.358002,364.763367 398.154175,374.528595 
	C407.930481,384.274078 417.420532,383.952606 426.241394,373.429169 
	C451.072052,343.805695 475.870514,314.155151 500.643097,284.483124 
	C509.909760,273.383759 520.573730,273.382721 529.916016,284.535034 
	C568.433167,330.514954 606.968689,376.479462 645.489685,422.456238 
	C646.526550,423.693878 647.474243,425.006348 648.925232,426.880188 
	C518.621521,426.880188 389.022156,426.880188 259.422821,426.880188 
	C259.103607,426.463257 258.784393,426.046295 258.465149,425.629364 
	C262.580536,421.856445 266.695953,418.083557 271.061218,414.060547 
z"/>
<path fill="#B72EA6" opacity="1.000000" stroke="none" 
	d="
M404.060608,270.063904 
	C389.016968,283.427124 372.070435,287.000336 353.647797,280.190857 
	C335.316803,273.415253 325.218628,259.457642 322.479187,240.208862 
	C319.900635,222.090744 330.843719,201.903168 347.946228,192.923462 
	C365.796997,183.550903 387.790314,186.112076 402.504517,199.276871 
	C423.853210,218.377548 424.645660,249.097061 404.060608,270.063904 
z"/>
</svg>

<svg xmlns="http://www.w3.org/2000/svg" viewBox="0 0 900 600" xml:space="preserve"><path fill="#B92EA7" d="M648 601H1V1h900v600H648m3.468-110.068c2.666-.004 5.335.075 7.997-.027 9.44-.363 15.49-6.13 16.32-15.531.132-1.49.097-2.997.097-4.496.004-114.308.005-228.617-.004-342.926 0-1.83.018-3.676-.195-5.488-1.078-9.186-7.18-14.619-16.503-14.62-138.803-.012-277.607-.012-416.41.001-9.464.001-15.66 5.718-16.548 15.151-.14 1.489-.104 2.996-.104 4.495-.004 114.475-.006 228.95.016 343.426 0 2.322.113 4.672.476 6.961 1.02 6.427 4.91 10.515 11.066 12.158 2.84.758 5.918.862 8.889.862 134.637.04 269.275.034 404.903.034z"/><path fill="#010001" d="M650.973 490.932c-135.133 0-269.77.006-404.408-.034-2.97 0-6.049-.104-8.89-.862-6.156-1.643-10.045-5.731-11.065-12.158-.363-2.289-.476-4.639-.476-6.96-.022-114.476-.02-228.952-.016-343.427 0-1.499-.036-3.006.104-4.495.888-9.433 7.084-15.15 16.548-15.15 138.803-.014 277.607-.014 416.41-.002 9.323.001 15.425 5.434 16.503 14.62.213 1.812.195 3.658.195 5.488.009 114.309.008 228.618.004 342.926 0 1.5.035 3.006-.097 4.496-.83 9.4-6.88 15.168-16.32 15.531-2.662.102-5.331.023-8.492.027M270.81 414.311l-12.346 11.318.958 1.251h389.502c-1.45-1.874-2.398-3.186-3.435-4.424-38.521-45.977-77.057-91.941-115.574-137.921-9.342-11.152-20.006-11.151-29.273-.052a59213.89 59213.89 0 0 1-74.402 88.946c-8.82 10.524-18.31 10.845-28.087 1.1-9.796-9.766-19.578-19.545-29.383-29.301-10.258-10.205-18.172-10.247-28.325-.156-23.05 22.909-46.09 45.825-69.635 69.239m133.513-144.487c20.322-20.727 19.53-51.446-1.82-70.547-14.714-13.165-36.707-15.726-54.558-6.354-17.102 8.98-28.045 29.168-25.467 47.286 2.74 19.249 12.838 33.206 31.169 39.982 18.422 6.81 35.369 3.236 50.676-10.367z"/><path fill="#B82EA6" d="M271.061 414.06c23.295-23.163 46.336-46.08 69.385-68.988 10.153-10.09 18.067-10.05 28.325.156 9.805 9.756 19.587 19.535 29.383 29.3 9.776 9.746 19.267 9.425 28.087-1.099a59213.89 59213.89 0 0 0 74.402-88.946c9.267-11.1 19.93-11.1 29.273.052 38.517 45.98 77.053 91.944 115.574 137.921 1.037 1.238 1.984 2.55 3.435 4.424H259.423l-.958-1.25c4.116-3.774 8.231-7.546 12.596-11.57z"/><path fill="#B72EA6" d="M404.06 270.064c-15.043 13.363-31.99 16.936-50.412 10.127-18.331-6.776-28.43-20.733-31.169-39.982-2.578-18.118 8.365-38.306 25.467-47.286 17.851-9.372 39.844-6.81 54.559 6.354 21.348 19.1 22.14 49.82 1.556 70.787z"/></svg>
